X:1
T:Gigue
T:Gigue
T:Fifth movement from Suite No.8 in F Minor, HMV 433
T:G.F. Handel
T:AB 3909
T:AB 3909
C:G.F. Handel
Z:AB 3909
%%score { ( 1 3 ) | ( 2 4 ) }
L:1/8
Q:3/8=76
M:6/8
K:Ab
V:1 treble nm="Piano" snm="Pno."
V:3 treble 
V:2 bass 
V:4 bass 
V:1
 c | AFf =ec'g | a=eTf gce | f2 A G2 =e | fga B=ef | G(f=e) Ff/_e/d/c/ | d3 G3 | c3 F3 | B3 E3 | %9
 A3 D3 | E2 z E2 z | EBc Ecd | Ee/d/c/B/ cGA | B,BG [CEA]3 | a3 =B3 | f3 Gg/f/e/=d/ | %16
 ef/e/=d/c/ T=B3 | gc'/b/a/g/ a3 | =d3 g3 | c3 f3 | =B3 z3 | G=Bc Gc=d | G=de Gef | %23
 Gg/f/e/=d/ e=Bc | =D(c=B) [=EGc]2 c | =egG ACF | =EGc AF z | z2 =A [FB]3 | [Fc]3 [Fd]3 | %29
 cf/e/d/c/ d=AB | C(B=A) [DFB]D/C/[I:staff +1] B,/A,/ |[I:staff -1] z eB c[I:staff +1]C/B,/A,/G,/ | %32
[I:staff -1] z dA B[I:staff +1]B,/A,/G,/F,/ |[I:staff -1] z c'/b/a/g/ z f/e/d/c/ | %34
 z b/a/g/f/ z e/d/c/B/ | z a/g/f/=e/ z d/c/B/A/ | z g/f/=e/=d/ cef | cfg cga | cab cc'/b/a/g/ | %39
 a=ef Gge | Ff/e/d/c/ z B/A/G/F/ | z e/d/c/B/ z A/G/F/=E/ | z d/c/B/A/ z G/F/=E/=D/ | %43
 z c/B/A/G/ AB/A/G/F/ | C=EF CFG | CGA CAB | Cc/B/A/G/ A=EF | G,G=E [A,CF]3 |] %48
V:2
 z | z6 | z3 z2 C | A,F,[K:treble]F =EcG | A=EF GCD |[K:bass] B,G,C A,F,A, | B,D,B,, E,G,E, | %7
 A,C,A,, D,F,D, | G,B,,G,, C,E,C, | F,A,F, B,,D,B,, | E,,2 z E,,2 z | E,,G,A, E,,A,B, | %12
 G,E,G, A,E,F, | D,B,,E, A,,C/B,/A,/G,/ | F,A,/G,/F,/E,/ =D,F,/E,/D,/C,/ | %15
 =B,,=D,/C,/B,,/=A,,/ G,,=B,G, | CF,A, G,,G,/F,/E,/=D,/ | C,E,C, F,A,F, | B,=D,B,, E,G,E, | %19
 A,CA, =D,F,D, | G,=B,G, CF,A, | G,,G,=A, G,,A,=B, | G,,=B,C G,,C=D | =B,G,B, CG,A, | %24
 F,=D,G, C,2 z | z6 | z3 z2 F, | =A,CC, D,F,,B,, | =A,,C,F, D,B,,B, | =A,F,A, B,F,_G, | %30
 E,C,F, B,,2 x | [G,B,]2 G,, A,,2 x | [F,A,]2 F,, G,,2 x | [=E,G,]3 F,A,F, | B,D,B,, E,G,E, | %35
 A,CA, DF,D, | G,B,G, C,C=D | C,=D=E C,EF | C,FG =ECE | FCD B,G,C | A,F,A, B,D,B,, | %41
 E,G,E, A,C,A,, | D,F,D, G,B,,G,, | C,=E,C, F,B,,D, | C,,C,=D, C,,D,=E, | C,,=E,F, C,,F,G, | %46
 =E,C,E, F,C,D, | B,,G,,C, [F,,F,]3 |] %48
V:3
 x | x6 | x6 | x6 | x6 | x6 | z B/A/G/F/ z e/d/c/B/ | z A/G/F/E/ z d/c/B/A/ | %8
 z G/F/E/=D/ z c/B/A/G/ | z F/E/D/C/ z B/A/G/F/ | z GA z AB | x6 | x6 | x6 | x6 | x6 | x6 | %17
 x3 z f/e/=d/c/ | z b/a/g/f/ z e/=d/c/=B/ | z a/g/f/e/ z =d/c/=B/=A/ | z g/f/e/=d/ ef/e/d/c/ | x6 | %22
 x6 | x6 | x6 | x6 | x6 | x6 | x6 | x6 | x6 | x6 | x6 | x3 a3 | d3 g3 | c3 f3 | B3 x3 | x6 | x6 | %39
 x6 | x3 d3 | G3 c3 | F3 B3 | =E3 x3 | x6 | x6 | x6 | x6 |] %48
V:4
 x | x6 | x6 | x2[K:treble] x4 | x6 |[K:bass] x6 | x6 | x6 | x6 | x6 | z E,F, z F,G, | x6 | x6 | %13
 x6 | x6 | x6 | x6 | x6 | x6 | x6 | x6 | x6 | x6 | x6 | x6 | x6 | x6 | x6 | x6 | x6 | x6 | x6 | %32
 x6 | x6 | x6 | x6 | x6 | x6 | x6 | x6 | x6 | x6 | x6 | x6 | x6 | x6 | x6 | x6 |] %48

